communes/5890.svg

<?xml version="1.0" encoding="UTF-8" standalone="no"?>
<svg
   xmlns:dc="http://purl.org/dc/elements/1.1/"
   xmlns:cc="http://creativecommons.org/ns#"
   xmlns:rdf="http://www.w3.org/1999/02/22-rdf-syntax-ns#"
   xmlns:svg="http://www.w3.org/2000/svg"
   xmlns="http://www.w3.org/2000/svg"
   xmlns:xlink="http://www.w3.org/1999/xlink"
   xmlns:sodipodi="http://sodipodi.sourceforge.net/DTD/sodipodi-0.dtd"
   xmlns:inkscape="http://www.inkscape.org/namespaces/inkscape"
   height="763"
   width="603"
   version="1.0"
   id="svg20"
   sodipodi:version="0.32"
   inkscape:version="0.46"
   sodipodi:docname="Vevey-coat_of_arms.svg"
   sodipodi:docbase="C:\Documents and Settings\Steve\Bureau\Blason Villages Suisse pour Wikipédia (par Delta-9)"
   inkscape:output_extension="org.inkscape.output.svg.inkscape">
  <metadata
     id="metadata31">
    <rdf:RDF>
      <cc:Work
         rdf:about="">
        <dc:format>image/svg+xml</dc:format>
        <dc:type
           rdf:resource="http://purl.org/dc/dcmitype/StillImage" />
        <dc:date>07-AUG-2006</dc:date>
        <dc:creator>
          <cc:Agent>
            <dc:title>Jérôme BLUM (wagner51)</dc:title>
          </cc:Agent>
        </dc:creator>
        <cc:license
           rdf:resource="http://creativecommons.org/licenses/GPL/2.0/" />
        <dc:coverage />
        <dc:description>Gabarit pour le Projet:Blasons de WIkipédia</dc:description>
        <dc:subject>
          <rdf:Bag>
            <rdf:li>blason suisse modèle gabarit projet blasons</rdf:li>
          </rdf:Bag>
        </dc:subject>
        <dc:language>fr</dc:language>
        <dc:title>Gabrit d'un blason suisse</dc:title>
      </cc:Work>
      <cc:License
         rdf:about="http://creativecommons.org/licenses/GPL/2.0/">
        <cc:permits
           rdf:resource="http://web.resource.org/cc/Reproduction" />
        <cc:permits
           rdf:resource="http://web.resource.org/cc/Distribution" />
        <cc:requires
           rdf:resource="http://web.resource.org/cc/Notice" />
        <cc:permits
           rdf:resource="http://web.resource.org/cc/DerivativeWorks" />
        <cc:requires
           rdf:resource="http://web.resource.org/cc/ShareAlike" />
        <cc:requires
           rdf:resource="http://web.resource.org/cc/SourceCode" />
      </cc:License>
    </rdf:RDF>
  </metadata>
  <defs
     id="defs29"><inkscape:perspective
   sodipodi:type="inkscape:persp3d"
   inkscape:vp_x="0 : 381.5 : 1"
   inkscape:vp_y="0 : 1000 : 0"
   inkscape:vp_z="603 : 381.5 : 1"
   inkscape:persp3d-origin="301.5 : 254.33333 : 1"
   id="perspective28" />
<linearGradient
   id="linearGradient2893">
  <stop
     style="stop-color:#ffffff;stop-opacity:0.3137255;"
     offset="0"
     id="stop2895" />
  <stop
     id="stop2897"
     offset="0.19"
     style="stop-color:#ffffff;stop-opacity:0.25098041;" />
  <stop
     style="stop-color:#6b6b6b;stop-opacity:0.1254902;"
     offset="0.60000002"
     id="stop2901" />
  <stop
     style="stop-color:#000000;stop-opacity:0.1254902;"
     offset="1"
     id="stop2899" />
</linearGradient>
<linearGradient
   id="linearGradient2955">
  <stop
     style="stop-color:white;stop-opacity:0;"
     offset="0"
     id="stop2965" />
  <stop
     style="stop-color:black;stop-opacity:0.64583331;"
     offset="1"
     id="stop2959" />
</linearGradient>
<radialGradient
   inkscape:collect="always"
   xlink:href="#linearGradient2893"
   id="radialGradient3236"
   gradientUnits="userSpaceOnUse"
   gradientTransform="matrix(1.215027,1.531577e-24,1.464684e-23,1.266667,-839.1924,-490.4894)"
   cx="858.04236"
   cy="579.93323"
   fx="858.04236"
   fy="579.93323"
   r="300" />
<inkscape:perspective
   id="perspective2602"
   inkscape:persp3d-origin="297.63751 : 280.63 : 1"
   inkscape:vp_z="595.27502 : 420.94501 : 1"
   inkscape:vp_y="0 : 1000 : 0"
   inkscape:vp_x="0 : 420.94501 : 1"
   sodipodi:type="inkscape:persp3d" />

	
	
	
	
	

	
	
</defs>
  <sodipodi:namedview
     inkscape:window-height="837"
     inkscape:window-width="1199"
     inkscape:pageshadow="2"
     inkscape:pageopacity="0.0"
     guidetolerance="10.0"
     gridtolerance="10.0"
     objecttolerance="10.0"
     borderopacity="1.0"
     bordercolor="#666666"
     pagecolor="#ffffff"
     id="base"
     inkscape:zoom="0.58290895"
     inkscape:cx="322.33489"
     inkscape:cy="345.35881"
     inkscape:window-x="24"
     inkscape:window-y="42"
     inkscape:current-layer="layer2"
     showgrid="false"
     showguides="true"
     inkscape:guide-bbox="true">
    <sodipodi:guide
       orientation="horizontal"
       position="761.5"
       id="guide1885" />
    <sodipodi:guide
       orientation="vertical"
       position="1.5"
       id="guide1887" />
    <sodipodi:guide
       orientation="horizontal"
       position="1.5"
       id="guide1889" />
    <sodipodi:guide
       orientation="vertical"
       position="601.5"
       id="guide1891" />
    <sodipodi:guide
       orientation="vertical"
       position="301.50081"
       id="guide1893" />
  </sodipodi:namedview>
  <desc
     id="desc22">Coat of Arms of Canton of Freiburg (Fribourg)</desc>
  <g
     inkscape:groupmode="layer"
     id="layer1"
     inkscape:label="Fond écu"
     style="opacity:1;display:inline"
     sodipodi:insensitive="true">
    <path
       id="path1899"
       d="M 1.5,1.49998 L 1.5,460.3679 C 1.5,626.6785 135.81456,761.5 301.49999,761.5 C 467.18543,761.5 601.5,626.6785 601.5,460.3679 L 601.5,1.49998 L 1.5,1.49998 z"
       style="fill:#fcef3c;fill-opacity:1" />
    <path
       id="path2583"
       d="M 301.499,761.499 C 467.185,761.499 601.499,626.679 601.499,460.368 L 601.499,1.5 L 301.499,1.5 L 301.499,761.499 L 301.499,761.499 z"
       style="opacity:1;fill:#2b5df2;display:inline" />
  </g>
  <g
     inkscape:groupmode="layer"
     id="layer2"
     inkscape:label="Meubles"
     style="opacity:1;display:inline"
     sodipodi:insensitive="true">
    <path
       id="path2587"
       d="M 269.888,177.807 C 267.81,171.675 270.312,150.749 278.55,142.144 L 255.324,142.144 C 249.888,145.863 248.699,149.117 248.699,151.093 C 248.699,153.069 246.321,155.393 243.263,155.393 C 240.206,155.393 237.827,153.069 237.827,151.093 C 237.827,149.117 236.638,145.863 231.202,142.144 L 199.397,142.144 C 207.21,146.58 227.932,166.274 232.052,177.807 L 282.58,326.912 L 216.673,521.4 C 215.272,512.085 138.201,244.343 133.106,227.31 C 128.01,210.277 122.915,194.841 122.915,187.389 C 122.915,174.88 127.756,155.984 143.296,142.144 L 102.616,142.144 C 97.18,147.822 95.991999,152.79 95.991999,155.806 C 95.991999,158.822 93.612999,162.371 90.554999,162.371 C 87.496999,162.371 85.118999,158.823 85.118999,155.806 C 85.118999,152.789 83.929999,147.822 78.493999,142.144 L 37.564999,142.144 C 45.717999,150.661 70.176999,175.678 78.329999,203.357 C 86.482999,231.036 196.888,603.727 196.888,603.727 L 226.612,603.727 L 301.5,382.735 L 301.5,271.089 L 269.888,177.807 z"
       style="fill:#2b5df2" />
    <path
       id="path2589"
       d="M 524.501,142.144 C 519.065,147.822 517.876,152.79 517.876,155.806 C 517.876,158.822 515.498,162.371 512.44,162.371 C 509.382,162.371 507.003,158.823 507.003,155.806 C 507.003,152.789 505.815,147.822 500.379,142.144 L 459.699,142.144 C 475.24,155.983 480.081,174.88 480.081,187.389 C 480.081,194.841 474.985,210.277 469.89,227.31 C 464.795,244.343 387.723,512.084 386.323,521.4 L 320.416,326.912 L 370.943,177.807 C 375.064,166.274 395.786,146.579 403.599,142.144 L 371.793,142.144 C 366.358,145.863 365.169,149.117 365.169,151.093 C 365.169,153.069 362.79,155.393 359.732,155.393 C 356.675,155.393 354.297,153.069 354.297,151.093 C 354.297,149.117 353.107,145.863 347.671,142.144 L 324.445,142.144 C 332.683,150.749 335.185,171.675 333.107,177.807 L 301.497,271.089 L 301.497,382.735 L 376.385,603.727 L 406.11,603.727 C 406.11,603.727 516.514,231.036 524.667,203.357 C 532.821,175.678 557.28,150.66 565.433,142.144 L 524.501,142.144 L 524.501,142.144 z"
       style="fill:#fcef3c" />
    <path
       id="path2591"
       d="M 301.499,271.089 L 269.888,177.807 C 267.81,171.675 270.312,150.749 278.55,142.144 L 255.324,142.144 C 249.888,145.863 248.699,149.117 248.699,151.093 C 248.699,153.069 246.321,155.393 243.263,155.393 C 240.206,155.393 237.827,153.069 237.827,151.093 C 237.827,149.117 236.638,145.863 231.202,142.144 L 199.397,142.144 C 207.21,146.58 227.932,166.274 232.052,177.807 L 282.58,326.912 L 216.673,521.4 C 215.272,512.085 138.201,244.343 133.106,227.31 C 128.01,210.277 122.915,194.841 122.915,187.389 C 122.915,174.88 127.756,155.984 143.296,142.144 L 102.616,142.144 C 97.18,147.822 95.991999,152.79 95.991999,155.806 C 95.991999,158.822 93.612999,162.371 90.554999,162.371 C 87.496999,162.371 85.118999,158.823 85.118999,155.806 C 85.118999,152.789 83.929999,147.822 78.493999,142.144 L 37.564999,142.144 C 45.717999,150.661 70.176999,175.678 78.329999,203.357 C 86.482999,231.036 196.888,603.727 196.888,603.727 L 226.612,603.727 L 301.5,382.735"
       stroke-miterlimit="10"
       style="fill:none;stroke:#000000;stroke-width:3;stroke-miterlimit:10" />
    <path
       id="path2593"
       d="M 301.499,382.735 L 376.387,603.727 L 406.112,603.727 C 406.112,603.727 516.516,231.036 524.669,203.357 C 532.823,175.678 557.282,150.66 565.435,142.144 L 524.502,142.144 C 519.066,147.822 517.877,152.79 517.877,155.806 C 517.877,158.822 515.499,162.371 512.441,162.371 C 509.383,162.371 507.004,158.823 507.004,155.806 C 507.004,152.789 505.816,147.822 500.38,142.144 L 459.7,142.144 C 475.241,155.983 480.082,174.88 480.082,187.389 C 480.082,194.841 474.986,210.277 469.891,227.31 C 464.796,244.343 387.724,512.084 386.324,521.4 L 320.417,326.912 L 370.944,177.807 C 375.065,166.274 395.787,146.579 403.6,142.144 L 371.794,142.144 C 366.359,145.863 365.17,149.117 365.17,151.093 C 365.17,153.069 362.791,155.393 359.733,155.393 C 356.676,155.393 354.298,153.069 354.298,151.093 C 354.298,149.117 353.108,145.863 347.672,142.144 L 324.446,142.144 C 332.684,150.749 335.186,171.675 333.108,177.807 L 301.498,271.089"
       stroke-miterlimit="10"
       style="fill:none;stroke:#000000;stroke-width:3;stroke-miterlimit:10" />
    <line
       id="line2595"
       y2="761.49896"
       x2="301.49899"
       y1="1.4999999"
       x1="301.49899"
       style="fill:none;stroke:#000000;stroke-width:3" />
  </g>
  <g
     inkscape:groupmode="layer"
     id="layer3"
     inkscape:label="Reflet final"
     style="display:inline"
     sodipodi:insensitive="true">
    <path
       style="fill:url(#radialGradient3236);fill-opacity:1"
       d="M 1.5,1.5 L 1.5,460.3679 C 1.5,626.67854 135.81454,761.5 301.49993,761.5 C 467.1854,761.5 601.5,626.67854 601.5,460.3679 L 601.5,1.5 L 1.5,1.5 z"
       id="path2346" />
  </g>
  <g
     inkscape:groupmode="layer"
     id="layer4"
     inkscape:label="Contour final"
     style="display:inline"
     sodipodi:insensitive="true">
    <path
       style="fill:none;fill-opacity:1;stroke:#000000;stroke-width:3;stroke-miterlimit:4;stroke-dasharray:none;stroke-opacity:1"
       d="M 1.5,1.5 L 1.5,460.36794 C 1.5,626.67854 135.81454,761.5 301.49993,761.5 C 467.1854,761.5 601.5,626.67854 601.5,460.36794 L 601.5,1.5 L 1.5,1.5 z "
       id="path3239" />
  </g>
</svg>

<?xml version="1.0" encoding="UTF-8"?>
<svg version="1.0" viewBox="0 0 603 763" xmlns="http://www.w3.org/2000/svg" xmlns:cc="http://creativecommons.org/ns#" xmlns:dc="http://purl.org/dc/elements/1.1/" xmlns:rdf="http://www.w3.org/1999/02/22-rdf-syntax-ns#" xmlns:xlink="http://www.w3.org/1999/xlink">
<metadata>
<rdf:RDF>
<cc:Work rdf:about="">
<dc:format>image/svg+xml</dc:format>
<dc:type rdf:resource="http://purl.org/dc/dcmitype/StillImage"/>
<dc:date>07-AUG-2006</dc:date>
<dc:creator>
<cc:Agent>
<dc:title>Jérôme BLUM (wagner51)</dc:title>
</cc:Agent>
</dc:creator>
<cc:license rdf:resource="http://creativecommons.org/licenses/GPL/2.0/"/>
<dc:coverage/>
<dc:description>Gabarit pour le Projet:Blasons de WIkipédia</dc:description>
<dc:subject>
<rdf:Bag>
<rdf:li>blason suisse modèle gabarit projet blasons</rdf:li>
</rdf:Bag>
</dc:subject>
<dc:language>fr</dc:language>
<dc:title>Gabrit d'un blason suisse</dc:title>
</cc:Work>
<cc:License rdf:about="http://creativecommons.org/licenses/GPL/2.0/">
<cc:permits rdf:resource="http://web.resource.org/cc/Reproduction"/>
<cc:permits rdf:resource="http://web.resource.org/cc/Distribution"/>
<cc:requires rdf:resource="http://web.resource.org/cc/Notice"/>
<cc:permits rdf:resource="http://web.resource.org/cc/DerivativeWorks"/>
<cc:requires rdf:resource="http://web.resource.org/cc/ShareAlike"/>
<cc:requires rdf:resource="http://web.resource.org/cc/SourceCode"/>
</cc:License>
</rdf:RDF>
</metadata>
<defs>
<radialGradient id="a" cx="858.04" cy="579.93" r="300" gradientTransform="matrix(1.215 1.5316e-24 1.4647e-23 1.2667 -839.19 -490.49)" gradientUnits="userSpaceOnUse">
<stop stop-color="#fff" stop-opacity=".31373" offset="0"/>
<stop stop-color="#fff" stop-opacity=".25098" offset=".19"/>
<stop stop-color="#6b6b6b" stop-opacity=".12549" offset=".6"/>
<stop stop-opacity=".12549" offset="1"/>
</radialGradient>
</defs>
<desc>Coat of Arms of Canton of Freiburg (Fribourg)</desc>
<g>
<path d="m1.5 1.5v458.87c0 166.31 134.31 301.13 300 301.13 165.69 0 300-134.82 300-301.13v-458.87h-600z" fill="#fcef3c"/>
<path d="m301.5 761.5c165.69 0 300-134.82 300-301.13v-458.87h-300v760z" fill="#2b5df2"/>
<path d="m269.89 177.81c-2.078-6.132 0.424-27.058 8.662-35.663h-23.226c-5.436 3.719-6.625 6.973-6.625 8.949s-2.378 4.3-5.436 4.3c-3.057 0-5.436-2.324-5.436-4.3s-1.189-5.23-6.625-8.949h-31.805c7.813 4.436 28.535 24.13 32.655 35.663l50.528 149.1-65.907 194.49c-1.401-9.315-78.472-277.06-83.567-294.09-5.096-17.033-10.191-32.469-10.191-39.921 0-12.509 4.841-31.405 20.381-45.245h-40.68c-5.436 5.678-6.624 10.646-6.624 13.662s-2.379 6.565-5.437 6.565-5.436-3.548-5.436-6.565-1.189-7.984-6.625-13.662h-40.929c8.153 8.517 32.612 33.534 40.765 61.213s118.56 400.37 118.56 400.37h29.724l74.888-220.99v-111.65l-31.612-93.282z" fill="#2b5df2"/>
<path d="m524.5 142.14c-5.436 5.678-6.625 10.646-6.625 13.662s-2.378 6.565-5.436 6.565-5.437-3.548-5.437-6.565-1.188-7.984-6.624-13.662h-40.68c15.541 13.839 20.382 32.736 20.382 45.245 0 7.452-5.096 22.888-10.191 39.921s-82.167 284.77-83.567 294.09l-65.907-194.49 50.527-149.1c4.121-11.533 24.843-31.228 32.656-35.663h-31.806c-5.435 3.719-6.624 6.973-6.624 8.949s-2.379 4.3-5.437 4.3c-3.057 0-5.435-2.324-5.435-4.3s-1.19-5.23-6.626-8.949h-23.226c8.238 8.605 10.74 29.531 8.662 35.663l-31.61 93.282v111.65l74.888 220.99h29.725s110.4-372.69 118.56-400.37c8.154-27.679 32.613-52.697 40.766-61.213h-40.932z" fill="#fcef3c"/>
<path d="m301.5 271.09-31.611-93.282c-2.078-6.132 0.424-27.058 8.662-35.663h-23.226c-5.436 3.719-6.625 6.973-6.625 8.949s-2.378 4.3-5.436 4.3c-3.057 0-5.436-2.324-5.436-4.3s-1.189-5.23-6.625-8.949h-31.805c7.813 4.436 28.535 24.13 32.655 35.663l50.528 149.1-65.907 194.49c-1.401-9.315-78.472-277.06-83.567-294.09-5.096-17.033-10.191-32.469-10.191-39.921 0-12.509 4.841-31.405 20.381-45.245h-40.68c-5.436 5.678-6.624 10.646-6.624 13.662s-2.379 6.565-5.437 6.565-5.436-3.548-5.436-6.565-1.189-7.984-6.625-13.662h-40.929c8.153 8.517 32.612 33.534 40.765 61.213s118.56 400.37 118.56 400.37h29.724l74.888-220.99" fill="none" stroke="#000" stroke-miterlimit="10" stroke-width="3"/>
<path d="m301.5 382.74 74.888 220.99h29.725s110.4-372.69 118.56-400.37c8.154-27.679 32.613-52.697 40.766-61.213h-40.933c-5.436 5.678-6.625 10.646-6.625 13.662s-2.378 6.565-5.436 6.565-5.437-3.548-5.437-6.565-1.188-7.984-6.624-13.662h-40.68c15.541 13.839 20.382 32.736 20.382 45.245 0 7.452-5.096 22.888-10.191 39.921s-82.167 284.77-83.567 294.09l-65.907-194.49 50.527-149.1c4.121-11.533 24.843-31.228 32.656-35.663h-31.806c-5.435 3.719-6.624 6.973-6.624 8.949s-2.379 4.3-5.437 4.3c-3.057 0-5.435-2.324-5.435-4.3s-1.19-5.23-6.626-8.949h-23.226c8.238 8.605 10.74 29.531 8.662 35.663l-31.61 93.282" fill="none" stroke="#000" stroke-miterlimit="10" stroke-width="3"/>
<line x1="301.5" x2="301.5" y1="1.5" y2="761.5" fill="none" stroke="#000" stroke-width="3"/>
</g>
<g>
<path d="m1.5 1.5v458.87c0 166.31 134.31 301.13 300 301.13 165.69 0 300-134.82 300-301.13v-458.87h-600z" fill="url(#a)"/>
<path d="m1.5 1.5v458.87c0 166.31 134.31 301.13 300 301.13 165.69 0 300-134.82 300-301.13v-458.87h-600z" fill="none" stroke="#000" stroke-width="3"/>
</g>
</svg>
